X:1
T:When younglings first on Cupid fix their sight
T:William Byrd (c.1540-1623)
T:The second part
T:When younglings first on Cupid fix their sight
T:© Choral Public Domain Library 2010
T:© Choral Public Domain Library 2010
T:© Choral Public Domain Library 2010
T:© Choral Public Domain Library 2010
T:© Choral Public Domain Library 2010
T:© Choral Public Domain Library 2010
T:© Choral Public Domain Library 2010
C:William Byrd (c.1540-1623)
Z:The second part
Z:© Choral Public Domain Library 2010
%%score [ 1 2 3 ]
L:1/8
M:4/4
K:C
V:1 treble nm="Soprano" snm="S."
V:2 treble-8 nm="Tenor" snm="A."
V:3 treble-8 transpose=-12 nm="Tenor" snm="T."
V:1
 [B,f]2 |[M:4/2] C4 G2 A2 G4 z2 F2 | E2 C2 E2 ^F2 G4 A4 | G4 z4 z2 G2 G2 G2 | c4 A4 z2 G4 _B2 | %5
w: |When young- lings first on|Cu- pid fix their sight, their|sight, and see him|na- ked, blind- fold|
 A2 A2 G4 d4 c4 | B8 z4 z2 G2 | A2 B2 c4 z2 A2 B3 B | G4 z2 A4 G4 ^F2 | G8 z8 | C4 F2 D2 E2 F2 G4 | %11
w: and a boy, and a|boy, though|bow and shafts and fi- re-|brand be his _|might,|yet ween they he can work|
 F2 A4 E2 G4 z2 G2 | c2 A2 B2 c2 d4 A2 c2- | c2 B2 c4 B4 A4 | G4 A4 F8 | !fermata!E16 || %16
w: them none an- noy, yet|ween they he can work them none|_ an- noy, work them|none an- *|noy.|
 z4 G4 A4 c4 | B6 A2 B2 c2 B2 G2 | B4 z2 A2 Bc d2 c2 B2 | A4 z2 B2 cB A4 B2 | %20
w: And there- fore|with his pur- ple wings they|play, for glo- ri- ous seem- eth|love though light _ _ as|
 G2 G2 z2 ^F2 A2 GB A4 | z4 z2 G2 d2 Ac B4 | c4 B2 A2 ^G2 A4 G2 | A4 z4 z2 G2 B4 | A2 c2 B4 A4 G4 | %25
w: fea- ther, and when they have done,|and when they have done,|they ween to scape a- *|way, for blind|men say they, say they,|
 z4 c4 B4 A2 c2 | G2 G2 z4 z2 c4 B2 | A2 c2 G2 G2 ^F2 G4 F2 | G3 D F2 E2 D2 d4 c2 | %29
w: shoot they know not|whi- ther, shoot they|know not whi- ther, they know not|whi- ther, not whi- ther, shoot they|
 B4 d4 G2 G2 B4 | A2 G4 ^F2 G4 !fermata!G4 || z8 G4 A2 c2 | B4 E4 G8 | D2 G4 F2 E4 D4- | %34
w: know not whi- ther, shoot|they know not whi- ther.|But when by|proof they find|that he did see, that|
 D2 C4 B,2 C4 z2 G2 | G2 A2 G8 z2 G2 | c4 A2 c4 B2 A4 | B4 z2 G4 d4 c2 | B4 z2 A2 c2 G2 B2 d2 | %39
w: _ he did see, and|that his wound did|ra- ther dim their _|sight, they won- der|more how such a lad as|
 A4 z4 d4 c4 | B4 A4 z4 z2 G2 | c2 A2 B4 A4 G2 A2- | AG G4 ^F2 G4 A2 B2 | G2 A2 G4 z4 z2 G2- | %44
w: he, should be|of such sur-|pass- ing power and might and|_ _ _ _ might, and _|_ _ might, should|
 G2 F4 E2 D4 G2 c2 | A2 B4 c4 B2 c2 C2 | F2 D2 E3 F G8 | E4 z2 A2 A4 _B4 | A4 z2 G4 A4 B2 | %49
w: _ be of such sur- pass-|ing power and _ might, sur-|pass- ing power and _|might: but Ants have|galls, but Ants have|
 c2 C2 G8 z4 | z4 c4 B4 c2 d2- | dc B2 A4 B4 z4 | D4 C4 D2 E4 D2- | D2 ^CB, C4 D4 z2 A2 | %54
w: galls, have galls,|so hath the Bee|_ _ _ his sting,|so hath the Bee his|_ _ _ _ sting, then|
 A4 B4 c6 A2 | c2 B2 A3 G ^F4 z2 G2 | c4 A4 B8 | z8 z2 G2 B4 | ^c4 d4 B2 =c4 A2 | A2 B2 c8 z4 | %60
w: shield me heavens from|such a sub- tle thing, a|sub- tle thing,|then shield|me heavens from such a|sub- tle thing,|
 z2 A2 c4 d4 f4- | f2 e2 d2 c2 B4 B2 c2- | c2 A4 B4 cd e2 d2 | c2 A2 B2 c2 d2 G2 AB c2- | %64
w: then shield me heavens|_ from such a sub- tle thing,|_ then shield me _ heavens from|such a sub- tle thing, a sub- * *|
 c2 BA B2 B2 | !fermata!c16 |] %66
w: * * * * tle|thing.|
V:2
 [G,A]2 |[M:4/2] z8 G,4 C2 D2 | C4 z2 C2 B,2 G,2 C2 D2 | E4 F4 E4 z2 C2 | C2 C2 F4 E4 z2 D2- | %5
w: |When young- lings|first on Cu- pid fix their|sight, their sight, and|see him na- ked, blind-|
 D2 F2 E2 E2 D2 G4 ^F2 | G4 D4 F4 E4 | D4 z2 C2 D3 D B,2 D2- | D2 ^C2 D4 =C2 B,2 A,4 | %9
w: * fold and a boy, and a|boy, though bow and|shafts and fi- re- brand be|_ his might, be his might,|
 z2 G,2 C2 A,2 B,2 C2 D4 | A,2 C4 B,2 C4 z4 | z8 z2 C2 F2 D2 | E2 F2 G4 D2 F4 E2 | %13
w: yet ween they he can work|them none an- noy,|yet ween they|he can work them none an-|
 D4 z2 A,2 D2 B,2 C2 D2 | E4 A,2 C4 B,A, B,4 | !fermata!C16 || E8 F4 E4 | z4 D6 C2 D2 E2 | %18
w: noy, yet ween they he can|work them none an- * *|noy.|And there- fore|with his pur- ple|
 D2 B,2 D4 z2 D2 EF G2 | ^F2 D2 G4 z2 E2 =FE D2- | D2 ^C2 D4 D4 z2 =C2 | G2 DF E4 z4 G4 | %22
w: wings they play, for glo- ri- ous|seem- eth love though light _ _|_ as fea- ther, and|when they have done, they|
 F2 E2 D4 E2 C2 B,4 | z2 A,2 C4 B,2 E2 D4 | F2 E2 D4 z2 C2 E4 | D2 F2 E4 z2 G2 F2 E2- | %26
w: ween to scape a- * way,|for blind men say they,|say _ they, for blind|men say they, shoot they know|
 E2 G2 D2 D2 F2 E2 D2 G2 | C2 C2 z2 C4 B,2 A,2 D2 | G,2 G,2 z2 G4 F2 E4 | G4 D2 D2 E4 D4 | %30
w: _ not whi- ther, shoot they know not|whi- ther, shoot they know not|whi- ther, shoot they know|not whi- ther, shoot they|
 C3 B, A,2 A,2 B,4 !fermata!B,4 || C4 D2 F2 E4 A,4 | D4 z4 G,2 D4 C2 | B,8 z4 z2 D2 | %34
w: know _ _ not whi- ther.|But when by proof they|find that he did|see, that|
 G4 F4 E4 z2 E2 | D2 F2 E4 C2 G4 E2 | E2 F3 G A3 G G4 ^F2 | G8 z4 z2 E2- | E2 G4 F2 E4 z2 D2 | %39
w: he did see, and|that his wound did ra- ther,|did ra- * * ther dim their|sight, they|_ won- der more how|
 F2 C2 E2 G2 D4 z4 | G4 F4 E4 D4 | z2 C2 G2 D2 F4 E4 | D4 z4 z2 D2 F2 D2 | E2 D3 C C4 B,2 C4 | %44
w: such a lad as he,|should be of such|sur- pass- ing power and|might, of such sur-|pass- ing _ power and might,|
 z4 G4 F4 E4 | D4 z2 C2 F2 D2 E4 | D4 C4 D2 C4 B,2 | C4 z2 C4 D4 E2 | F4 z2 E2 E4 F4 | %49
w: should be of|such sur- pass- ing power|and might, and _ _|might: but Ants have|galls, but Ants have|
 E4 z2 E2 D4 E2 F2- | F2 G4 ^F2 G4 z4 | G4 ^F4 G4 A4- | A2 G4 ^F2 G8 | G8 ^F8 | z16 | z8 z4 D4 | %56
w: galls, so hath the Bee|_ his _ sting,|so hath the Bee|_ his _ sting,|his sting,||then|
 E4 ^F4 G6 D2 | F2 E2 D3 F E4 D2 E2- | E2 E2 D4 z2 G,2 C4 | D4 A6 G2 F3 E | D2 D2 A,4 F4 A4- | %61
w: shield me heavens from|such a sub- tle thing, a sub-|* tle thing, then shield|me heavens from such a|sub- tle thing, from such|
 A2 G2 F3 E D4 z2 G,2 | C4 D4 G6 F2 | E4 D2 F4 E2 D2 C2 | D4 D4 | !fermata!C16 |] %66
w: _ a sub- tle thing, then|shield me heavens from|such a sub- * * *|* tle|thing.|
V:3
 [Cf]2 |[M:4/2] z16 | C4 G2 A2 G4 z2 F2 | E2 C2 A2 B2 c8 | z2 F2 F2 F2 c4 G4 | z4 z2 G4 _B2 A2 A2 | %6
w: ||When young- lings first on|Cu- pid fix their sight,|and see him na- ked,|blind- fold and a|
 G4 z2 G2 A2 B2 c4 | z2 G2 A3 A ^F4 G4 | E4 D4 z4 D4 | E2 C2 E2 F2 G4 D2 F2- | %10
w: boy, though bow and shafts|and fi- re- brand be|his might, yet|ween they he can work them none|
 F2 E2 D2 G2 c2 A2 B2 c2 | d4 A2 c4 e2 d2 B2 | A4 G4 z4 z2 C2 | F2 D2 E2 F2 G4 F4 | E4 F4 D8 | %15
w: _ an- noy, yet ween they he can|work them none an- noy, an-|* noy, yet|ween they he can work them|none an- *|
 !fermata!C16 || c8 F4 C4 | G6 ^F2 G2 A2 G2 E2 | G4 z2 D2 GA B2 A2 G2 | d4 z2 G2 A3 G F2 G2 | %20
w: noy.|And there- fore|with his pur- ple wings they|play, for glo- ri- ous seem- eth|love, though light _ _ _|
 E4 D2 D2 z2 G2 d2 Ac | B4 c4 B2 A2 G4 | A4 D2 F2 E4 z2 E2 | F4 E2 A2 G8 | z2 C2 G4 D2 F2 E2 c2 | %25
w: as fea- ther, and when they have|done, they ween to scape|a- * * way, for|blind men say they,|for blind men say they, shoot|
 B2 A4 c2 G2 G2 z4 | c4 B4 A2 c2 G2 G2 | z2 F4 E2 D2 G2 D2 D2 | z2 d4 c2 B2 d2 A2 A2 | %29
w: they know not whi- ther,|shoot they know not whi- ther,|shoot they know not whi- ther,|shoot they know not whi- ther,|
 z2 G4 F2 E4 G4 | C2 C2 D4 G4 !fermata!G4 || z16 | G4 A2 c2 B4 E4 | G4 z2 D2 G6 F2 | %34
w: shoot they know not|whi- ther, not whi- ther.||But when by proof they|find that he did|
 E4 D4 C4 z2 c2 | B2 A2 c4 z2 G2 c4 | A4 F6 G2 d4 | z2 G4 c4 B2 A4 | z2 E2 G2 D2 A2 c2 G4 | %39
w: see, did see, and|that his wound did ra-|ther dim their sight,|they won- der more|how such a lad as he,|
 z2 A2 c2 G2 B2 d2 A4 | z4 d4 c4 B4 | A4 z4 z2 F2 c2 A2 | B4 A4 G4 z2 G2- | G2 F4 E2 D4 z2 C2 | %44
w: how such a lad as he,|should be of|such sur- pass- ing|power and might, should|_ be of such sur-|
 c2 A2 B2 c4 B2 c2 C2 | F2 D2 E4 D4 C4 | z2 G2 c2 A2 B2 c2 G4 | C4 z2 F2 F4 G4 | F4 z2 c2 c4 d4 | %49
w: pass- ing power and _ might, sur-|pass- ing power and might,|sur- pass- ing power and _|might: but Ants have|galls, but Ants have|
 c4 z2 c2 B4 c2 d2- | dc B2 A4 G4 A2 B2- | B2 G2 d4 z2 G4 ^F2- | F2 G2 A4 G6 =F2 | E8 D8 | %54
w: galls, so hath the Bee|_ _ _ his sting, the Bee|_ his sting, so hath|_ the Bee his _|_ sting,|
 z2 d2 d4 e4 f4- | f2 d2 f2 e2 d3 c B4 | A8 z4 G4 | A4 B4 c4 z2 G2 | A4 ^F2 G4 E4 =F2 | %59
w: then shield me heavens|_ from such a sub- * tle|thing, then|shield me heavens from|such a sub- tle _|
 D4 z2 F2 c4 d4 | f6 e2 d6 A2 | c4 F4 G4 E4- | E2 F2 D2 G3 FED C2 D2 | E2 F2 G2 A2 B2 c2 F2 A2 | %64
w: thing, then shield me|heavens from such a|sub- tle thing, from|_ such a sub- tle _ _ thing, from|such a sub- tle thing, from such a|
 G4 G4 | !fermata!C16 |] %66
w: sub- tle|thing.|

